svgs/regular/file-medical.svg

<svg xmlns="http://www.w3.org/2000/svg" viewBox="0 0 384 512"><!-- Font Awesome Pro 6.0.0-alpha2 by @fontawesome - https://fontawesome.com License - https://fontawesome.com/license (Commercial License) --><path d="M224 240C224 231.199 216.801 224 208 224H176C167.199 224 160 231.199 160 240V288H112C103.199 288 96 295.195 96 303.996V336C96 344.797 103.199 351.996 112 351.996H160V399.996C160 408.797 167.199 416 176 416H208C216.801 416 224 408.797 224 399.996V351.996H272C280.801 351.996 288 344.797 288 336V303.996C288 295.195 280.801 288 272 288H224V240ZM365.256 93.383L290.627 18.746C278.625 6.742 262.348 0 245.373 0H64C28.654 0 0 28.652 0 64L0.02 448C0.02 483.344 28.674 512 64.02 512H320C355.199 512 384 483.199 384 448V138.641C384 121.664 377.258 105.383 365.256 93.383ZM336.002 448C336.002 456.836 328.838 464 320.002 464H64.018C55.18 464 48.018 456.836 48.018 448L48 64.125C48 55.289 55.164 48.125 64 48.125H224.008V128C224.008 145.672 238.334 160 256.008 160H336.002V448Z"/></svg>

<svg xmlns="http://www.w3.org/2000/svg" viewBox="0 0 384 512"><!--! Font Awesome Pro 6.3.0 by @fontawesome - https://fontawesome.com License - https://fontawesome.com/license (Commercial License) Copyright 2023 Fonticons, Inc. --><path d="M64 464c-8.8 0-16-7.2-16-16V64c0-8.8 7.2-16 16-16H224v80c0 17.7 14.3 32 32 32h80V448c0 8.8-7.2 16-16 16H64zM64 0C28.7 0 0 28.7 0 64V448c0 35.3 28.7 64 64 64H320c35.3 0 64-28.7 64-64V154.5c0-17-6.7-33.3-18.7-45.3L274.7 18.7C262.7 6.7 246.5 0 229.5 0H64zm96 240v48H112c-8.8 0-16 7.2-16 16v32c0 8.8 7.2 16 16 16h48v48c0 8.8 7.2 16 16 16h32c8.8 0 16-7.2 16-16V352h48c8.8 0 16-7.2 16-16V304c0-8.8-7.2-16-16-16H224V240c0-8.8-7.2-16-16-16H176c-8.8 0-16 7.2-16 16z"/></svg>
